public/assets/site-setup/social-media-icons/icon-facebook.svg

<svg xmlns="http://www.w3.org/2000/svg" width="24" height="24" viewBox="0 0 24 24"><path d="M12 0c-6.627 0-12 5.373-12 12s5.373 12 12 12 12-5.373 12-12-5.373-12-12-12zm3 8h-1.35c-.538 0-.65.221-.65.778v1.222h2l-.209 2h-1.791v7h-3v-7h-2v-2h2v-2.308c0-1.769.931-2.692 3.029-2.692h1.971v3z"/></svg>

<svg xmlns="http://www.w3.org/2000/svg" viewBox="0 0 24 24"><path d="M12,0A12,12,0,1,0,24,12,12,12,0,0,0,12,0Zm3,8H13.65c-.54,0-.65.22-.65.78V10h2l-.21,2H13v7H10V12H8V10h2V7.69C10,5.92,10.93,5,13,5h2Z" style="fill:#fff"/><path d="M13,8.78V10h2l-.21,2H13v7H10V12H8V10h2V7.69C10,5.92,10.93,5,13,5h2V8H13.65C13.11,8,13,8.22,13,8.78Z" style="fill:#1a1a1a"/></svg>
